X:1
T:One Morning in May
M:3/4
L:1/4
K:G
 d| d B d| d B d| d B A| G3-| G z d| d a2-| a2 b| g/2 d3/2- d/2e/2|\
 g/2 d3/2 e| g3-| g| z2| d g3/2 g/2|B/2-G/2 BB/2-d/2| d/2 B3/2A/2-G/2|\
 G3-| G| z G/2A/2| B/2 d3/2 e/2d/2| d B G/2G/2| B/2 B3/2A/2-G/2| G3|\
